!!!ONB: MCCC : IFS0366_04 : Extracted Monophonic Melody
!!!COM: Schubert, Franz
!!!OPR: Vier Impromptus
!!!OMV: 4
!!!SCT: D.899 ; Op.92
!!!ODT: 1827///
**kern
*staff1
=1
*clefG2
*k[f#c#g#d#a#]
*B:
*M3/4
16bb
16ddd#
16bb
16gg#
16gg#
16bb
16gg#
16dd#
16dd#
16gg#
16dd#
16b
=2
16b
16dd#
16b
16g#
16g#
16b
16g#
16d#
4a#
=3
16bb
16ddd#
16bb
16gg#
16gg#
16bb
16gg#
16dd#
16dd#
16gg#
16dd#
16b
=4
16b
16dd#
16b
16g#
16g#
16b
16g#
16d#
4a#
=5
4b
4ee
4ee
=6
4ee
4dd#
4cc#
=7
16bb
16ddd#
16bb
16gg#
16gg#
16bb
16gg#
16dd#
16dd#
16gg#
16dd#
16b
=8
16b
16dd#
16b
16g#
16g#
16b
16g#
16d#
4a#
=9
16bb
16ddd#
16bb
16gg#
16gg#
16bb
16gg#
16dd#
16dd#
16gg#
16dd#
16b
=10
16b
16dd#
16b
16g#
16g#
16b
16g#
16d#
4a#
=11
4b
4ee
4ee
=12
4ee
4dd#
4dd
=13
16ddd#
16fff#
16ddd#
16bb
16bb
16ddd#
16bb
16ff#
16ff#
16bb
16ff#
16dd#
=14
16dd#
16ff#
16dd#
16b
16b
16dd#
16b
16f#
4cc#
=15
16ddd#
16fff#
16ddd#
16bb
16bb
16ddd#
16bb
16ff#
16ff#
16bb
16ff#
16dd#
=16
16dd#
16ff#
16dd#
16b
16b
16dd#
16b
16f#
4cc#
=17
4dd#
4gg#
4gg#
=18
4gg#
4ff#
4ee
=19
16ddd
16fff#
16ddd
16bb
16bb
16ddd
16bb
16ff#
16ff#
16bb
16ff#
16dd
=20
16dd
16ff#
16dd
16b
16b
16dd
16b
16f#
4cc#
=21
16ddd
16fff#
16ddd
16bb
24bb
24ddd
12bb
12ff#
24ff#
24bb
12ff#
12dd
=22
16dd
16ff#
16dd
16b
24b
24dd
12b
12f#
4cc#
=23
4dd
4bb
4bb
=24
4bb
4aa
4ff##
=25
4ee##
4ff##
4ff##
=26
4ff##
4ff#
4ee
=27
4dd#
4ee
4ee
=28
4ee
4dd#
4cc#
=29
4b
4b
4b
=30
4a#
4a#
4a#
=31
16bb#
16ddd#
16bb#
16gg#
16gg#
16bb#
16gg#
16dd#
16dd#
16gg#
16dd#
16b#
=32
16b#
16dd#
16b#
16g#
16g#
16b#
16g#
16d#
4a#
=33
16bb#
16ddd#
16bb#
16gg#
16gg#
16bb#
16gg#
16dd#
16dd#
16gg#
16dd#
16b#
=34
16b#
16dd#
16b#
16g#
16g#
16b#
16g#
16d#
4a#
=35
16ddd#
16ggg#
16ddd#
16bb#
16bb#
16ddd#
16bb#
16gg#
16gg#
16bb#
16gg#
16dd#
=36
16dd#
16gg#
16dd#
16b#
16b#
16dd#
16b#
16g#
4a#
=37
16ddd#
16ggg#
16ddd#
16bb#
16bb#
16ddd#
16bb#
16gg#
16gg#
16bb#
16gg#
16dd#
=38
16dd#
16gg#
16dd#
16b#
16b#
16dd#
16b#
16g#
4a#
=39
16b#
16dd#
16b#
16g#
16g#
16b#
16g#
16d#
4g#
=40
16cc#
16ee#
16cc#
16g#
16g#
16cc#
16g#
16e#
4g#
=41
16dd#
16ff##
16dd#
16a#
16a#
16dd#
16a#
16f##
4a#
=42
16dd#
16gg#
16dd#
16b#
16b#
16dd#
16b#
16g#
4b#
=43
16bb#
16ddd#
16bb#
16gg#
16gg#
16bb#
16gg#
16dd#
4gg#
=44
16ccc#
16eee#
16ccc#
16gg#
16gg#
16ccc#
16gg#
16ee#
4gg#
=45
16ddd#
16fff##
16ddd#
16aa#
16aa#
16ddd#
16aa#
16ff##
4aa#
=46
16ddd#
16ggg#
16ddd#
16bb#
16bb#
16ddd#
16bb#
16gg#
4bb#
=47
16b#
16dd#
16b#
16g#
16g#
16b#
16g#
16d#
4g#
=48
16cc#
16ee#
16cc#
16g#
16g#
16cc#
16g#
16e#
4g#
=49
16dd#
16ff##
16dd#
16a#
16a#
16dd#
16a#
16f##
4a#
=50
16dd#
16gg#
16dd#
16b#
16b#
16dd#
16b#
16g#
4b#
=51
16bb#
16ddd#
16bb#
16gg#
16gg#
16bb#
16gg#
16dd#
4gg#
=52
16ccc#
16eee#
16ccc#
16gg#
16gg#
16ccc#
16gg#
16ee#
4gg#
=53
16ddd#
16fff##
16ddd#
16aa#
16aa#
16ddd#
16aa#
16ff##
4aa#
=54
16ddd#
16ggg#
16ddd#
16bb#
16bb#
16ddd#
16bb#
16gg#
4bb#
=55
16ddd#
16fff##
16ddd#
16aa#
16aa#
16ddd#
16aa#
16ff##
4aa#
=56
16ddd#
16ggg#
16ddd#
16bb#
16bb#
16ddd#
16bb#
16gg#
4bb#
=57
16eee#
16aaa
16eee#
16bb#
16bb#
16eee#
16bb#
16aa
4bb#
=58
16eee#
16aaa#
16eee#
16ccc#
16ccc#
16eee#
16ccc#
16aa#
4ccc#
=59
16eee#
16aaa
16eee#
16bb#
16bb#
16eee#
16bb#
16aa
4bb#
=60
16eee#
16aaa#
16eee#
16ccc#
16ccc#
16eee#
16ccc#
16aa#
4ccc#
=61
16ggg#
16bbb#
16ggg#
16ddd#
16ddd#
16ggg#
16ddd#
16bb#
4ddd#
=62
16ggg#
16cccc#
16ggg#
16eee#
16eee#
16ggg#
16eee#
16ccc#
4eee#
=63
16ggg#
16bbb#
16ggg#
16ddd#
16ddd#
16ggg#
16ddd#
16bb#
4ddd#
=64
16ggg#
16cccc#
16ggg#
16eee#
16eee#
16ggg#
16eee#
16ccc#
16ccc#
16eee#
16ccc#
16gg#
=65
16gg#
16ccc#
16gg#
16ee#
16ee#
16gg#
16ee#
16cc#
16cc#
16ee#
16cc#
16g#
=66
16gg#
16ccc#
16gg#
16ee#
16ee#
16gg#
16ee#
16cc#
16cc#
16ee#
16cc#
16g#
=67
16g#
16cc#
16g#
16e#
16e#
16g#
16e#
16c#
16c#
16e#
16c#
16G#
=68
16c#
16e
16c#
16A#
16A#
16c#
16A#
16F##
16c#
16e
16c#
16A#
=69
16A#
16c#
16A#
16F##
16c#
16e
16c#
16A#
16A#
16c#
16A#
16F##
=70
16c#
16d#
16c#
16A#
16A#
16c#
16A#
16F##
16c#
16d#
16c#
16A#
=71
16A#
16c#
16A#
16F##
16c#
16d#
16c#
16A#
16A#
16c#
16A#
16F##
=72
12d#
12d#[
12d#]
12g#
12g#[
12g#]
12f##
12f##[
12f##]
=73
12e#
12e#[
12e#]
12cc#
12cc#[
12cc#]
12a#
12a#[
12a#]
=74
12a#
12a#[
12a#]
12g#
12g#[
12g#]
12g#
12g#[
12g#]
=75
12g#
12g#[
12g#]
12f##
12f##[
12f##]
12f##
12f##[
12f##]
=76
12d#
12d#[
12d#]
12g#
12g#[
12g#]
12f##
12f##[
12f##]
=77
12e#
12e#[
12e#]
12ee#
12ee#[
12ee#]
12cc#
12cc#[
12cc#]
=78
12cc#
12cc#[
12cc#]
12b#
12b#[
12b#]
12b#
12b#[
12b#]
=79
12b#
12b#[
12b#]
12a#
12a#[
12a#]
12a#
12a#[
12a#]
=80
16b#
16dd#
16b#
16g#
16g#
16b#
16g#
16d#
4g#
=81
16cc#
16ee#
16cc#
16g#
16g#
16cc#
16g#
16e#
4g#
=82
16dd#
16ff##
16dd#
16a#
16a#
16dd#
16a#
16f##
4a#
=83
16dd#
16gg#
16dd#
16b#
16b#
16dd#
16b#
16g#
4b#
=84
16bb#
16ddd#
16bb#
16gg#
16gg#
16bb#
16gg#
16dd#
4gg#
=85
16ccc#
16eee#
16ccc#
16gg#
16gg#
16ccc#
16gg#
16ee#
4gg#
=86
16ddd#
16fff##
16ddd#
16aa#
16aa#
16ddd#
16aa#
16ff##
4aa#
=87
16ddd#
16ggg#
16ddd#
16bb#
16bb#
16ddd#
16bb#
16gg#
4bb#
=88
16b#
16dd#
16b#
16g#
16g#
16b#
16g#
16d#
4g#
=89
16cc#
16ee#
16cc#
16g#
16g#
16cc#
16g#
16e#
4g#
=90
16dd#
16ff##
16dd#
16a#
16a#
16dd#
16a#
16f##
4a#
=91
16dd#
16gg#
16dd#
16b#
16b#
16dd#
16b#
16g#
4b#
=92
16bb#
16ddd#
16bb#
16gg#
16gg#
16bb#
16gg#
16dd#
4gg#
=93
16ccc#
16eee#
16ccc#
16gg#
16gg#
16ccc#
16gg#
16ee#
4gg#
=94
16ddd#
16fff##
16ddd#
16aa#
16aa#
16ddd#
16aa#
16ff##
4aa#
=95
16ddd#
16ggg#
16ddd#
16bb#
16bb#
16ddd#
16bb#
16gg#
4bb#
=96
16ddd#
16fff##
16ddd#
16aa#
16aa#
16ddd#
16aa#
16ff##
4aa#
=97
16ddd#
16ggg#
16ddd#
16bb#
16bb#
16ddd#
16bb#
16gg#
4bb#
=98
16ddd#
16fff##
16ddd#
16aa#
16aa#
16ddd#
16aa#
16ff##
4aa#
=99
16ddd#
16ggg#
16ddd#
16bb#
16bb#
16ddd#
16bb#
16gg#
16gg#
16bb#
16gg#
16dd#
=100
16dd#
16gg#
16dd#
16b#
16b#
16dd#
16b#
16g#
16g#
16b#
16g#
16d#
=101
16dd#
16gg#
16dd#
16b#
16b#
16dd#
16b#
16g#
16g#
16b#
16g#
16d#
=102
16d#
16g#
16d#
16B#
16B#
16d#
16B#
16G#
16d#
16g#
16d#
16B#
=103
2.r
=104
2.r
=105
2.g#[
=106
2.g#]
=107
8r
8e
8e
8e
8e
8e
=108
8g#[
8g#]
8a[
8a]
8g#[
8g#]
=109
8a
8a
8a
8a
8a[
8a]
=110
8g#
8g#
8g#
8g#
8g#[
8g#]
=111
8g#
8g#
8g#
8g#
8g#[
8g#]
=112
8ee[
8ee]
8dd#[
8dd#]
8cc#[
8cc#]
=113
8cc#
8cc#
8cc#
8cc#
8cc#[
8cc#]
=114
8b#
8b#
8b#
8b#
8b#[
8b#]
=115
8b#[
8b#]
8cc#
8cc#
8cc#
8cc#
=116
8cc#[
8cc#]
8cc#[
8cc#]
8cc#[
8cc#]
=117
8cc#[
8cc#]
8dd
8dd
8dd
8dd
=118
8dd[
8dd]
8dd[
8dd]
8dd[
8dd]
=119
8ee[
8ee]
8dd#
8dd#
8dd#[
8dd#]
=120
8ee[
8ee]
8dd#
8dd#
8dd#[
8dd#]
=121
8g#
8g#
8g#
8g#
8g#[
8g#]
=122
8g#
8g#
8g#
8g#
8g#[
8g#]
=123
8g#
8g#
8g#
8g#
8g#[
8g#]
=124
8g#[
8g#]
8a[
8a]
8g#[
8g#]
=125
8a
8a
8a
8a
8a[
8a]
=126
8g#
8g#
8g#
8g#
8g#[
8g#]
=127
8g#
8g#
8g#
8g#
8g#[
8g#]
=128
8ee[
8ee]
8dd#[
8dd#]
8cc#[
8cc#]
=129
8cc#
8cc#
8cc#
8cc#
8cc#[
8cc#]
=130
8b#
8b#
8b#
8b#
8b#[
8b#]
=131
8b#[
8b#]
8cc#
8cc#
8cc#
8cc#
=132
8cc#[
8cc#]
8cc#[
8cc#]
8cc#[
8cc#]
=133
8cc#[
8cc#]
8dd
8dd
8dd
8dd
=134
8dd[
8dd]
8dd[
8dd]
8dd[
8dd]
=135
8ee[
8ee]
8dd#
8dd#
8dd#[
8dd#]
=136
8ee[
8ee]
8dd#
8dd#
8dd#[
8dd#]
=137
8g#
8g#
8g#
8g#
8g#
8g#
=138
8g#[
8g#]
8g#[
8g#]
8g#[
8g#]
=139
8g#[
8g#]
8a
8a
8a
8a
=140
8a[
8a]
8g#[
8g#]
8f#[
8f#]
=141
8e[
8e]
8g#[
8g#]
8cc#[
8cc#]
=142
8ee[
8ee]
8gg#[
8gg#]
8ccc#[
8ccc#]
=143
8ddd#[
8ddd#]
8eee
8eee
8eee
8eee
=144
8eee[
8eee]
8ddd#[
8ddd#]
8ccc#[
8ccc#]
=145
8ccc#[
8ccc#]
8bb#[
8bb#]
8gg#[
8gg#]
=146
8dd#[
8dd#]
8b#[
8b#]
8g#[
8g#]
=147
8g#[
8g#]
8a
8a
8a
8a
=148
8a[
8a]
8g#[
8g#]
8f#[
8f#]
=149
8e[
8e]
8g#[
8g#]
8cc#[
8cc#]
=150
8ee[
8ee]
8gg#[
8gg#]
8ccc#[
8ccc#]
=151
8ddd#[
8ddd#]
8eee
8eee
8eee
8eee
=152
8eee[
8eee]
8ddd#[
8ddd#]
8ccc#[
8ccc#]
=153
8ccc#
8ccc#
8ccc#
8ccc#
8ccc#[
8ccc#]
=154
8gg#
8gg#
8gg#
8gg#
8gg#[
8gg#]
=155
8g#
8g#
8g#
8g#
8g#[
8g#]
=156
8g#[
8g#]
8a#[
8a#]
8g#[
8g#]
=157
8a#
8a#
8a#
8a#
8a#[
8a#]
=158
8g#
8g#
8g#
8g#
8g#[
8g#]
=159
8g#
8g#
8g#
8g#
8g#[
8g#]
=160
8ee#[
8ee#]
8dd#[
8dd#]
8cc#[
8cc#]
=161
8cc#
8cc#
8cc#
8cc#
8cc#[
8cc#]
=162
8b#
8b#
8b#
8b#
8b#[
8b#]
=163
8b#[
8b#]
8cc#
8cc#
8cc#
8cc#
=164
8cc#[
8cc#]
8cc#[
8cc#]
8cc#[
8cc#]
=165
8cc#[
8cc#]
8dd
8dd
8dd
8dd
=166
8dd[
8dd]
8dd[
8dd]
8dd[
8dd]
=167
8ee#[
8ee#]
8ff#
8ff#
8ff#
8ff#
=168
8ff#[
8ff#]
8ff#[
8ff#]
8ff#[
8ff#]
=169
8ff#[
8ff#]
8ff##
8ff##
8ff##
8ff##
=170
8ff##[
8ff##]
8ff##[
8ff##]
8ff##[
8ff##]
=171
8aa[
8aa]
8gg#
8gg#
8gg#[
8gg#]
=172
8aa[
8aa]
8gg#
8gg#
8gg#[
8gg#]
=173
8cc#
8cc#
8cc#
8cc#
8cc#
8cc#
=174
8cc#[
8cc#]
8g#[
8g#]
8g#[
8g#]
=175
8g#[
8g#]
8a
8a
8a
8a
=176
8a[
8a]
8g#[
8g#]
8f#[
8f#]
=177
8e[
8e]
8g#[
8g#]
8cc#[
8cc#]
=178
8ee[
8ee]
8gg#[
8gg#]
8ccc#[
8ccc#]
=179
8ddd#[
8ddd#]
8eee
8eee
8eee
8eee
=180
8eee[
8eee]
8ddd#[
8ddd#]
8ccc#[
8ccc#]
=181
8ccc#[
8ccc#]
8bb#[
8bb#]
8gg#[
8gg#]
=182
8dd#[
8dd#]
8b#[
8b#]
8g#[
8g#]
=183
8g#[
8g#]
8a
8a
8a
8a
=184
8a[
8a]
8g#[
8g#]
8f#[
8f#]
=185
8e[
8e]
8g#[
8g#]
8cc#[
8cc#]
=186
8ee[
8ee]
8gg#[
8gg#]
8ccc#[
8ccc#]
=187
8ddd#[
8ddd#]
8eee
8eee
8eee
8eee
=188
8eee[
8eee]
8ddd#[
8ddd#]
8ccc#[
8ccc#]
=189
8ccc#
8ccc#
8ccc#
8ccc#
8ccc#[
8ccc#]
=190
8gg#
8gg#
8gg#
8gg#
8gg#[
8gg#]
=191
8g#
8g#
8g#
8g#
8g#[
8g#]
=192
8g#[
8g#]
8a#[
8a#]
8g#[
8g#]
=193
8a#
8a#
8a#
8a#
8a#[
8a#]
=194
8g#
8g#
8g#
8g#
8g#[
8g#]
=195
8g#
8g#
8g#
8g#
8g#[
8g#]
=196
8ee#[
8ee#]
8dd#[
8dd#]
8cc#[
8cc#]
=197
8cc#
8cc#
8cc#
8cc#
8cc#[
8cc#]
=198
8b#
8b#
8b#
8b#
8b#[
8b#]
=199
8b#[
8b#]
8cc#
8cc#
8cc#
8cc#
=200
8cc#[
8cc#]
8cc#[
8cc#]
8cc#[
8cc#]
=201
8cc#[
8cc#]
8dd
8dd
8dd
8dd
=202
8dd[
8dd]
8dd[
8dd]
8dd[
8dd]
=203
8ee#[
8ee#]
8ff#
8ff#
8ff#
8ff#
=204
8ff#[
8ff#]
8ff#[
8ff#]
8ff#[
8ff#]
=205
8ff#[
8ff#]
8ff##
8ff##
8ff##
8ff##
=206
8ff##[
8ff##]
8ff##[
8ff##]
8ff##[
8ff##]
=207
8aa[
8aa]
8gg#
8gg#
8gg#[
8gg#]
=208
8aa[
8aa]
8gg#
8gg#
8gg#[
8gg#]
=209
8cc#
8cc#
8cc#
8cc#
8cc#
8cc#
=210
8cc#[
8cc#]
8g#[
8g#]
8g#[
8g#]
=211
8g#
8g#
8g#
8g#
8g#
8g#
=212
8g#[
8g#]
8g#[
8g#]
8a#[
8a#]
=213
8g#
8g#
8g#
8g#
8g#
8g#
=214
8g#
8g#
8g#
8g#
8g#[
8g#]
=215
8f##
8f##
8f##
8f##
8f##
8f##
=216
8f##
8f##
8f##
8f##
8f##[
8f##]
=217
16f##
16a#
16f##
16e
16a#
16cc#
16a#
16f##
16cc#
16ee
16cc#
16a#
=218
16ee
16ff##
16ee
16cc#
16ff##
16aa#
16ff##
16ee
16aa#
16ccc#
16aa#
16ff##
=219
16ccc#
16eee
16ccc#
16aa#
16ccc#
16eee
16ccc#
16aa#
16ccc#
16eee
16ccc#
16aa#
=220
16ccc#
16eee
16ccc#
16aa#
16ccc#
16eee
16ccc#
16aa#
16ccc#
16eee
16ccc#
16aa#
=221
16ccc#
16ddd#
16ccc#
16aa#
16ccc#
16ddd#
16ccc#
16aa#
16ccc#
16ddd#
16ccc#
16aa#
=222
16ccc#
16ddd#
16ccc#
16aa#
16ccc#
16ddd#
16ccc#
16aa#
16ccc#
16ddd#
16ccc#
16aa#
=223
16bb
16ddd#
16bb
16gg#
16gg#
16bb
16gg#
16dd#
16dd#
16gg#
16dd#
16b
=224
16b
16dd#
16b
16g#
16g#
16b
16g#
16d#
4a#
=225
16bb
16ddd#
16bb
16gg#
16gg#
16bb
16gg#
16dd#
16dd#
16gg#
16dd#
16b
=226
16b
16dd#
16b
16g#
16g#
16b
16g#
16d#
4a#
=227
4b
4ee
4ee
=228
4ee
4dd#
4cc#
=229
16bb
16ddd#
16bb
16gg#
16gg#
16bb
16gg#
16dd#
16dd#
16gg#
16dd#
16b
=230
16b
16dd#
16b
16g#
16g#
16b
16g#
16d#
4a#
=231
16bb
16ddd#
16bb
16gg#
16gg#
16bb
16gg#
16dd#
16dd#
16gg#
16dd#
16b
=232
16b
16dd#
16b
16g#
16g#
16b
16g#
16d#
4a#
=233
4b
4ee
4ee
=234
4ee
4dd#
4dd
=235
16ddd#
16fff#
16ddd#
16bb
16bb
16ddd#
16bb
16ff#
16ff#
16bb
16ff#
16dd#
=236
16dd#
16ff#
16dd#
16b
16b
16dd#
16b
16f#
4cc#
=237
16ddd#
16fff#
16ddd#
16bb
16bb
16ddd#
16bb
16ff#
16ff#
16bb
16ff#
16dd#
=238
16dd#
16ff#
16dd#
16b
16b
16dd#
16b
16f#
4cc#
=239
4dd#
4gg#
4gg#
=240
4gg#
4ff#
4ee
=241
16ddd
16fff#
16ddd
16bb
16bb
16ddd
16bb
16ff#
16ff#
16bb
16ff#
16dd
=242
16dd
16ff#
16dd
16b
16b
16dd
16b
16f#
4cc#
=243
16ddd
16fff#
16ddd
16bb
24bb
24ddd
12bb
12ff#
24ff#
24bb
12ff#
12dd
=244
16dd
16ff#
16dd
16b
24b
24dd
12b
12f#
4cc#
=245
4dd
4bb
4bb
=246
4bb
4aa
4ff##
=247
4ee##
4ff##
4ff##
=248
4ff##
4ff#
4ee
=249
4dd#
4ee
4ee
=250
4ee
4dd#
4cc#
=251
4b
4b
4b
=252
4a#
4a#
4a#
=253
16bb#
16ddd#
16bb#
16gg#
16gg#
16bb#
16gg#
16dd#
16dd#
16gg#
16dd#
16b#
=254
16b#
16dd#
16b#
16g#
16g#
16b#
16g#
16d#
4a#
=255
16bb#
16ddd#
16bb#
16gg#
16gg#
16bb#
16gg#
16dd#
16dd#
16gg#
16dd#
16b#
=256
16b#
16dd#
16b#
16g#
16g#
16b#
16g#
16d#
4a#
=257
16ddd#
16ggg#
16ddd#
16bb#
16bb#
16ddd#
16bb#
16gg#
16gg#
16bb#
16gg#
16dd#
=258
16dd#
16gg#
16dd#
16b#
16b#
16dd#
16b#
16g#
4a#
=259
16ddd#
16ggg#
16ddd#
16bb#
16bb#
16ddd#
16bb#
16gg#
16gg#
16bb#
16gg#
16dd#
=260
16dd#
16gg#
16dd#
16b#
16b#
16dd#
16b#
16g#
4a#
=261
16b#
16dd#
16b#
16g#
16g#
16b#
16g#
16d#
4g#
=262
16cc#
16ee#
16cc#
16g#
16g#
16cc#
16g#
16e#
4g#
=263
16dd#
16ff##
16dd#
16a#
16a#
16dd#
16a#
16f##
4a#
=264
16dd#
16gg#
16dd#
16b#
16b#
16dd#
16b#
16g#
4b#
=265
16bb#
16ddd#
16bb#
16gg#
16gg#
16bb#
16gg#
16dd#
4gg#
=266
16ccc#
16eee#
16ccc#
16gg#
16gg#
16ccc#
16gg#
16ee#
4gg#
=267
16ddd#
16fff##
16ddd#
16aa#
16aa#
16ddd#
16aa#
16ff##
4aa#
=268
16ddd#
16ggg#
16ddd#
16bb#
16bb#
16ddd#
16bb#
16gg#
4bb#
=269
16b#
16dd#
16b#
16g#
16g#
16b#
16g#
16d#
4g#
=270
16cc#
16ee#
16cc#
16g#
16g#
16cc#
16g#
16e#
4g#
=271
16dd#
16ff##
16dd#
16a#
16a#
16dd#
16a#
16f##
4a#
=272
16dd#
16gg#
16dd#
16b#
16b#
16dd#
16b#
16g#
4b#
=273
16bb#
16ddd#
16bb#
16gg#
16gg#
16bb#
16gg#
16dd#
4gg#
=274
16ccc#
16eee#
16ccc#
16gg#
16gg#
16ccc#
16gg#
16ee#
4gg#
=275
16ddd#
16fff##
16ddd#
16aa#
16aa#
16ddd#
16aa#
16ff##
4aa#
=276
16ddd#
16ggg#
16ddd#
16bb#
16bb#
16ddd#
16bb#
16gg#
4bb#
=277
16ddd#
16fff##
16ddd#
16aa#
16aa#
16ddd#
16aa#
16ff##
4aa#
=278
16ddd#
16ggg#
16ddd#
16bb#
16bb#
16ddd#
16bb#
16gg#
4bb#
=279
16eee#
16aaa
16eee#
16bb#
16bb#
16eee#
16bb#
16aa
4bb#
=280
16eee#
16aaa#
16eee#
16ccc#
16ccc#
16eee#
16ccc#
16aa#
4ccc#
=281
16eee#
16aaa
16eee#
16bb#
16bb#
16eee#
16bb#
16aa
4bb#
=282
16eee#
16aaa#
16eee#
16ccc#
16ccc#
16eee#
16ccc#
16aa#
4ccc#
=283
16ggg#
16bbb#
16ggg#
16ddd#
16ddd#
16ggg#
16ddd#
16bb#
4ddd#
=284
16ggg#
16cccc#
16ggg#
16eee#
16eee#
16ggg#
16eee#
16ccc#
4eee#
=285
16ggg#
16bbb#
16ggg#
16ddd#
16ddd#
16ggg#
16ddd#
16bb#
4ddd#
=286
16ggg#
16cccc#
16ggg#
16eee#
16eee#
16ggg#
16eee#
16ccc#
16ccc#
16eee#
16ccc#
16gg#
=287
16gg#
16ccc#
16gg#
16ee#
16ee#
16gg#
16ee#
16cc#
16cc#
16ee#
16cc#
16g#
=288
16gg#
16ccc#
16gg#
16ee#
16ee#
16gg#
16ee#
16cc#
16cc#
16ee#
16cc#
16g#
=289
16g#
16cc#
16g#
16e#
16e#
16g#
16e#
16c#
16c#
16e#
16c#
16G#
=290
16c#
16e
16c#
16A#
16A#
16c#
16A#
16F##
16c#
16e
16c#
16A#
=291
16A#
16c#
16A#
16F##
16c#
16e
16c#
16A#
16A#
16c#
16A#
16F##
=292
16c#
16d#
16c#
16A#
16A#
16c#
16A#
16F##
16c#
16d#
16c#
16A#
=293
16A#
16c#
16A#
16F##
16c#
16d#
16c#
16A#
16A#
16c#
16A#
16F##
=294
12d#
12d#[
12d#]
12g#
12g#[
12g#]
12f##
12f##[
12f##]
=295
12e#
12e#[
12e#]
12cc#
12cc#[
12cc#]
12a#
12a#[
12a#]
=296
12a#
12a#[
12a#]
12g#
12g#[
12g#]
12g#
12g#[
12g#]
=297
12g#
12g#[
12g#]
12f##
12f##[
12f##]
12f##
12f##[
12f##]
=298
12d#
12d#[
12d#]
12g#
12g#[
12g#]
12f##
12f##[
12f##]
=299
12e#
12e#[
12e#]
12ee#
12ee#[
12ee#]
12cc#
12cc#[
12cc#]
=300
12cc#
12cc#[
12cc#]
12b#
12b#[
12b#]
12b#
12b#[
12b#]
=301
12b#
12b#[
12b#]
12a#
12a#[
12a#]
12a#
12a#[
12a#]
=302
16b#
16dd#
16b#
16g#
16g#
16b#
16g#
16d#
4g#
=303
16cc#
16ee#
16cc#
16g#
16g#
16cc#
16g#
16e#
4g#
=304
16dd#
16ff##
16dd#
16a#
16a#
16dd#
16a#
16f##
4a#
=305
16dd#
16gg#
16dd#
16b#
16b#
16dd#
16b#
16g#
4b#
=306
16bb#
16ddd#
16bb#
16gg#
16gg#
16bb#
16gg#
16dd#
4gg#
=307
16ccc#
16eee#
16ccc#
16gg#
16gg#
16ccc#
16gg#
16ee#
4gg#
=308
16ddd#
16fff##
16ddd#
16aa#
16aa#
16ddd#
16aa#
16ff##
4aa#
=309
16ddd#
16ggg#
16ddd#
16bb#
16bb#
16ddd#
16bb#
16gg#
4bb#
=310
16b#
16dd#
16b#
16g#
16g#
16b#
16g#
16d#
4g#
=311
16cc#
16ee#
16cc#
16g#
16g#
16cc#
16g#
16e#
4g#
=312
16dd#
16ff##
16dd#
16a#
16a#
16dd#
16a#
16f##
4a#
=313
16dd#
16gg#
16dd#
16b#
16b#
16dd#
16b#
16g#
4b#
=314
16bb#
16ddd#
16bb#
16gg#
16gg#
16bb#
16gg#
16dd#
4gg#
=315
16ccc#
16eee#
16ccc#
16gg#
16gg#
16ccc#
16gg#
16ee#
4gg#
=316
16ddd#
16fff##
16ddd#
16aa#
16aa#
16ddd#
16aa#
16ff##
4aa#
=317
16ddd#
16ggg#
16ddd#
16bb#
16bb#
16ddd#
16bb#
16gg#
4bb#
=318
16ddd#
16fff##
16ddd#
16aa#
16aa#
16ddd#
16aa#
16ff##
4aa#
=319
16ddd#
16ggg#
16ddd#
16bb#
16bb#
16ddd#
16bb#
16gg#
4bb#
=320
16ddd#
16fff##
16ddd#
16aa#
16aa#
16ddd#
16aa#
16ff##
4aa#
=321
16ddd#
16ggg#
16ddd#
16bb#
16bb#
16ddd#
16bb#
16gg#
16gg#
16bb#
16gg#
16dd#
=322
16dd#
16gg#
16dd#
16b#
16b#
16dd#
16b#
16g#
16g#
16b#
16g#
16d#
=323
16dd#
16gg#
16dd#
16b#
16b#
16dd#
16b#
16g#
16g#
16b#
16g#
16d#
=324
16d#
16g#
16d#
16B#
16B#
16d#
16B#
16G#
16d#
16g#
16d#
16B#
=325
4G#
4r
4r
=326
4ddd#
4r
4r
=327
4bb#
4r
4r
==
*-
